!!!PDT:	1923
!!!LANG: Non-Tone
!!!LING_GROUP: Siouan
!!!REG: Dakotas
!!!COM: Anon.
!!!OTL: I Killed Three
!!!ODT: <1918//
!!!MPN: Wopite [Scattered Corn, Mrs. Holding Eagle]
!!!MLC: Fort Berthold Reservation, North Dakota, United States of America
!! Song was recorded during either the summer of 1912, 1915, or 1918.
!!!AGN: monody
!!!SOCIAL_FUNCTION: Mandan and Hidatsa War Songs
!!!AMT: irregular
!!!RWG: Transcribed pitches, durations, and meters are only approximate.
!! Drum not recorded.
**kern
*ICvox
*Ifemale
*clefG2
*k[]
*M3/4
*MM72
8cc
8cc
=1
4ee
(12ee
12dd
12cc)
8cc
16a
16g
=2
8a
8a
8a
8g
16g
16e
16e
16d
=3
16c
[8.c
4c]
8g
8g
=4
4cc
8cc
16a
16g
8a
16g
16e
*M2/4
=5
4a
8a
8g
*M3/4
=6
16g
16e
[8e
8e]
8c
4e
*M2/4
=7
16c
8.c
8c
8c
*M3/4
=8
2c
8cc
8cc
=9
8ee
8ee
(12ee
12dd
12cc)
8cc
16a
16g
=10
8a
8a
8a
8g
16g
16e
16e
16d
=11
16c
[8.c
4c]
8g
8g
*M2/4
=12
8cc
16cc
16cc
8cc
8cc
=13
8cc
8a
(8a
16g
16e)
=14
8a
8a
8a
8g
*M3/4
=15
(16g
16e)
8e
8e
8c
4e
*M2/4
=16
16c
8.c
8c
8c
=17
2c
==
*-
!!!CNT: Mandan
!!!TXO: Mandan
!!!OCY: United States
!!!OCL: Frances Densmore
!!!YOR: Frances Densmore, "Mandan and Hidatsa Music",
!!!YOR: Bulletin 80, page 163, No. 94
!!!PPR: Smithsonian Institution, Bureau of American Ethnology
!!!PPR: Government Printing Office
!!!PDT: 1923
!!!PPP: Washington, DC, United States of America
!!!YEC: Electronic Copyright 2000 David Huron
!!!YER: August 2000
!!!YEN: United States of America
!!!ENC: David Huron
!!!RDT: August 18, 2000
!!!EEV: Release 1.0
!!!AIN: tom, vox
